!!!COM: Beethoven
!!!OTL: 7 Variations on a Quartet by Winter 
!!!Variation: Variation 6f
**harm	**function	**kern	**kern
*M2/4	*M2/4	*staff2	*staff1
*f:	*f:	*clefG2	*clefG2
*	*tb8	*k[b-e-a-d-]	*k[b-e-a-d-]
*	*	*M2/4	*M2/4
*	*	*f:	*f:
8i	8T	8r	[8c [8cc
=	=	=341	=341
2V7	2T	4C' 4G' 4B-'	8c] 8cc]
.	.	.	(4d- 4dd-
.	.	4C' 4G' 4B-'	.
.	.	.	8c) 8cc
=	=	=342	=342
2i64	2T	4C' 4F' 4A-'	8r
.	.	.	(4e 4ee
.	.	4C' 4F' 4A-'	.
.	.	.	8f) 8ff
=	=	=343	=343
2V7	2T	4C' 4E' 4G'	8r
.	.	.	(4cc 4ccc
.	.	4C' 4E' 4G'	.
.	.	.	8b-) 8bb-
=	=	=344	=344
2i64	2T	4C' 4F' 4A-'	8r
.	.	.	(4a- 4aa-
.	.	4C' 4F' 4A-'	.
.	.	.	8f) 8ff
=	=	=345	=345
2V7	2T	4C 4G 4B-	8r
.	.	.	(4d- 4dd-
.	.	4C 4G 4B-	.
.	.	.	8c) 8cc
=	=	=346	=346
4i	4T	4F 4A-	8r
.	.	.	(4e 4ee
4bVI	4T	4D- 4F 4A-	.
.	.	.	8f) 8ff
=	=	=347	=347
4ii@65	4@65P	4BB- 4F 4G	8r
.	.	.	8b- 8bb-
4V7	4D	4C 4G 4B-	8r
.	.	.	8e 8ee
=	=	=348	=348
4i	4T	8F 8A-	8r
.	.	8r	8f 8ff
4V	4T	8C	8r
.	.	8r	8c 8cc
=	=	=349	=349
2i	2T	8FF	8r
.	.	8r	8F 8f
.	.	4r	4r
==	==	==||	==||
*-	*-	*-	*-
